X:581
T:Bandon Bridge.
T:Droi.cio.d-na-bandann.
N:"Moderate.""2nd Setting.""Collected from F. O'Neill."
B:O'Neill's 581
Z:transcribed by J.B. Walsh walsh@math.ubc.ca
M:2/4
L:1/16
<START_ANN> %Q:80 <END_ANN>
K:D
FG|A3c BAGE|c3e d2cA|G3E D2D2|D6 FG|
Ad dcde|f3a gfed|e3f agedc|d6 FG|
A2d2 dcde|f3a gfec|d3e dcAF|G6 FG|
A2g2 f2e2|d3e dcAF|G3F D2D2|D6||
